dist/img/menu.svg

<svg width="37" height="36" viewBox="0 0 37 36" fill="none" xmlns="http://www.w3.org/2000/svg">
<path d="M12.041 24.3333H29.8188C30.4299 24.3333 30.9299 23.8333 30.9299 23.2222C30.9299 22.6111 30.4299 22.1111 29.8188 22.1111H12.041C11.4299 22.1111 10.9299 22.6111 10.9299 23.2222C10.9299 23.8333 11.4299 24.3333 12.041 24.3333ZM12.041 18.7778H29.8188C30.4299 18.7778 30.9299 18.2778 30.9299 17.6667C30.9299 17.0556 30.4299 16.5556 29.8188 16.5556H12.041C11.4299 16.5556 10.9299 17.0556 10.9299 17.6667C10.9299 18.2778 11.4299 18.7778 12.041 18.7778ZM10.9299 12.1111C10.9299 12.7222 11.4299 13.2222 12.041 13.2222H29.8188C30.4299 13.2222 30.9299 12.7222 30.9299 12.1111C30.9299 11.5 30.4299 11 29.8188 11H12.041C11.4299 11 10.9299 11.5 10.9299 12.1111Z" fill="white"/>
</svg>

<svg width="37" height="36" fill="none" xmlns="http://www.w3.org/2000/svg"><path d="M12.041 24.333h17.778c.61 0 1.11-.5 1.11-1.11 0-.612-.5-1.112-1.11-1.112H12.04c-.611 0-1.111.5-1.111 1.111s.5 1.111 1.111 1.111zm0-5.555h17.778c.61 0 1.11-.5 1.11-1.111s-.5-1.111-1.11-1.111H12.04c-.611 0-1.111.5-1.111 1.11 0 .612.5 1.112 1.111 1.112zM10.93 12.11c0 .611.5 1.111 1.111 1.111h17.778c.61 0 1.11-.5 1.11-1.11 0-.612-.5-1.112-1.11-1.112H12.04c-.611 0-1.111.5-1.111 1.111z" fill="#fff"/></svg>
